X:1
T:Title
%%score { ( 1 3 ) | ( 2 4 ) }
L:1/8
Q:1/4=116
M:3/4
K:Eb
V:1 treble nm="Grand Piano"
V:3 treble 
V:2 bass 
V:4 bass 
V:1
 [B,EG]2 [B,DF]2 [B,EG]2 | [B,EB]4 [A,CE]2 | B,2- [B,E]2[K:treble] [A,DF]2 | [G,E]6 | E2 D2 E2 | %5
w: Mrs.~L.~Shorey * *|||||
 G4 F2 | [DF]6- | [DF]6 | c2 c2 c2 | B2 B2 E2 | [B,A]2- [B,EA]2 [B,FA]2 | [B,G]6 | %12
w: |||||||
 [F,CF]2 [=E,C]2 [F,B,D]2 | [B,DG]4 [A,DF]2 | [G,E]6- | [G,E]6 |] %16
w: ||||
V:2
 E,2 B,,2 E,2 | G,,4 A,,2 | z2 G,2 B,,2 | E,6 | [C,G,C]2 [G,=B,]2 [C,G,C]2 | [F,=A,E]4 [F,A,E]2 | %6
 [B,,B,]6- | [B,,B,]6 | [A,CE]2 [G,B,=E]2 [F,A,F]2 | [G,B,C]2 [F,A,D]2 [E,G,]2 | B,,2 C,2 D,2 | %11
 z2 z2 _D2 | A,,2 G,,2 A,,2 | B,,4 B,,2 | E,6- | E,6 |] %16
V:3
 x6 | x6 | [F,D]2 z2[K:treble] z2 | z2 z2 B,2 | x6 | x6 | x6 | x6 | x6 | x6 | D2 z2 z2 | E4 z2 | %12
 x6 | x6 | x6 | x6 |] %16
V:4
 x6 | x6 | B,,4 z2 | x6 | x6 | x6 | x6 | x6 | x6 | x6 | x6 | E,6 | x6 | x6 | x6 | x6 |] %16

